assets/Sparkle/Flat/sparkle_flat.svg

<svg width="32" height="32" viewBox="0 0 32 32" fill="none" xmlns="http://www.w3.org/2000/svg">
<path d="M2 6C2 3.79086 3.79086 2 6 2H26C28.2091 2 30 3.79086 30 6V26C30 28.2091 28.2091 30 26 30H6C3.79086 30 2 28.2091 2 26V6Z" fill="#00D26A"/>
<path d="M17.209 8.00834L16.5047 5.61578C16.3639 5.13738 15.6863 5.13738 15.5454 5.61578L14.8411 8.00834C13.8815 11.2683 11.332 13.8177 8.07209 14.7774L5.67954 15.4817C5.20114 15.6225 5.20114 16.3002 5.67954 16.441L8.07209 17.1453C11.332 18.1049 13.8815 20.6544 14.8411 23.9143L15.5454 26.3069C15.6863 26.7853 16.3639 26.7853 16.5047 26.3069L17.209 23.9143C18.1687 20.6544 20.7182 18.1049 23.9781 17.1453L26.3706 16.441C26.849 16.3002 26.849 15.6225 26.3706 15.4817L23.9781 14.7774C20.7182 13.8177 18.1687 11.2683 17.209 8.00834Z" fill="white"/>
</svg>

<svg xmlns="http://www.w3.org/2000/svg" width="32" height="32" fill="none"><path fill="#00D26A" d="M2 6a4 4 0 0 1 4-4h20a4 4 0 0 1 4 4v20a4 4 0 0 1-4 4H6a4 4 0 0 1-4-4V6Z"/><path fill="#fff" d="m17.209 8.008-.704-2.392c-.141-.479-.819-.479-.96 0l-.704 2.392a10 10 0 0 1-6.769 6.77l-2.392.704c-.479.14-.479.818 0 .959l2.392.704a10 10 0 0 1 6.77 6.77l.703 2.392c.141.478.819.478.96 0l.704-2.393a10 10 0 0 1 6.77-6.769l2.392-.704c.478-.14.478-.818 0-.96l-2.393-.704a10 10 0 0 1-6.769-6.769Z"/></svg>
